src/assets/attach-file-button.svg

<svg width="28" height="28" viewBox="0 0 28 28" fill="none" xmlns="http://www.w3.org/2000/svg">
<path d="M9.394 7.98901L12.6 4.76821V18.1976C12.6 18.569 12.7475 18.9251 13.0101 19.1878C13.2726 19.4504 13.6287 19.5979 14 19.5979C14.3713 19.5979 14.7274 19.4504 14.9899 19.1878C15.2525 18.9251 15.4 18.569 15.4 18.1976V4.76821L18.606 7.98901C18.7361 8.12026 18.891 8.22444 19.0616 8.29554C19.2322 8.36663 19.4152 8.40323 19.6 8.40323C19.7848 8.40323 19.9678 8.36663 20.1384 8.29554C20.309 8.22444 20.4639 8.12026 20.594 7.98901C20.7252 7.85883 20.8294 7.70395 20.9004 7.53331C20.9715 7.36266 21.0081 7.17963 21.0081 6.99476C21.0081 6.8099 20.9715 6.62687 20.9004 6.45622C20.8294 6.28558 20.7252 6.1307 20.594 6.00051L14.994 0.399118C14.8609 0.27163 14.7039 0.171694 14.532 0.105045C14.1912 -0.035015 13.8088 -0.035015 13.468 0.105045C13.2961 0.171694 13.1391 0.27163 13.006 0.399118L7.406 6.00051C7.27547 6.13108 7.17192 6.28609 7.10128 6.45668C7.03063 6.62727 6.99427 6.81011 6.99427 6.99476C6.99427 7.17941 7.03063 7.36225 7.10128 7.53285C7.17192 7.70344 7.27547 7.85844 7.406 7.98901C7.53653 8.11958 7.6915 8.22315 7.86205 8.29381C8.0326 8.36447 8.2154 8.40084 8.4 8.40084C8.5846 8.40084 8.7674 8.36447 8.93795 8.29381C9.1085 8.22315 9.26347 8.11958 9.394 7.98901ZM26.6 13.9965C26.2287 13.9965 25.8726 14.144 25.61 14.4067C25.3475 14.6693 25.2 15.0255 25.2 15.3969V23.799C25.2 24.1703 25.0525 24.5265 24.7899 24.7892C24.5274 25.0518 24.1713 25.1993 23.8 25.1993H4.2C3.8287 25.1993 3.4726 25.0518 3.21005 24.7892C2.9475 24.5265 2.8 24.1703 2.8 23.799V15.3969C2.8 15.0255 2.6525 14.6693 2.38995 14.4067C2.1274 14.144 1.7713 13.9965 1.4 13.9965C1.0287 13.9965 0.672601 14.144 0.41005 14.4067C0.1475 14.6693 0 15.0255 0 15.3969V23.799C0 24.9131 0.442499 25.9817 1.23015 26.7695C2.0178 27.5574 3.08609 28 4.2 28H23.8C24.9139 28 25.9822 27.5574 26.7698 26.7695C27.5575 25.9817 28 24.9131 28 23.799V15.3969C28 15.0255 27.8525 14.6693 27.59 14.4067C27.3274 14.144 26.9713 13.9965 26.6 13.9965Z" fill="#3E3E3E"/>
</svg>

<svg width="28" height="28" fill="none" xmlns="http://www.w3.org/2000/svg"><path d="M9.394 7.989l3.206-3.22v13.429a1.4 1.4 0 002.8 0V4.768l3.206 3.221a1.4 1.4 0 001.988 0 1.4 1.4 0 000-1.988l-5.6-5.602a1.399 1.399 0 00-.462-.294 1.4 1.4 0 00-1.064 0 1.399 1.399 0 00-.462.294l-5.6 5.602a1.406 1.406 0 001.988 1.988zM26.6 13.996a1.4 1.4 0 00-1.4 1.4V23.8a1.4 1.4 0 01-1.4 1.4H4.2a1.4 1.4 0 01-1.4-1.4v-8.402a1.4 1.4 0 10-2.8 0V23.8A4.201 4.201 0 004.2 28h19.6a4.2 4.2 0 004.2-4.201v-8.402a1.4 1.4 0 00-1.4-1.4z" fill="#3E3E3E"/></svg>
